svg/OSM-icons/railway #f8ddf7 °373737 °ffffff !label=enrailway,deEisenbahn/27021;railway=tram_stop;!name=;!bench=;feature_group=public_transport;!label=entram stop,deStraßenbahn- Haltestelle.svg

<svg xmlns="http://www.w3.org/2000/svg" viewBox="0 0 580 580" enable-background="new 0 0 580 580"><path fill="#111" stroke="#eee" stroke-width="3.408" d="m66.28 1.768c-41.34 0-64.57 21.371-64.57 65.04v450.12c0 40.844 20.895 62.23 62.19 62.23h452.02c41.31 0 62.23-20.315 62.23-62.23v-450.12c0-42.602-20.923-65.04-63.52-65.04-.003 0-448.5-.143-448.35 0z"/><g fill="#fff"><path d="m260.23 496.15l-97.22-.607c.434 67.57 97.22 67.57 97.22.607"/><path d="m460.74 496.13l-97.22-.607c.434 67.57 97.22 67.57 97.22.607"/><path d="m346.36 496h-68.51c-.485 15.811-2.964 23.15-7.14 30.381h81.42c-4.144-7.178-6.03-14.787-5.772-30.381"/><path d="m440.27 208.83l-9.795-10.272h-78.14l114.12-76.872-130.76-87.977-133.67 88.05 116.81 76.8h-81.11l-8.56 10.272h-94.81l.259 29.15h-.309l-65.952 131.27v79.62c0 14.379 16.979 29.326 29.924 29.29h413.34v-105.76-.594-132.18-1.412-29.378h-71.36m-104.63-162.86l112.55 75.73-112.47 75.76-115.13-75.7 115.05-75.79m-47.72 207.05l-.088 188.17c-1.735 9.832-8.6 11.652-14.11 16.93h-46.809c-5.538-5.414-12.536-7.162-14.291-17.1l-.089-188.17c0-4.237 5.925-8.411 12.777-13.22h49.584c6.956 4.882 13.02 9.104 13.02 13.392m-178.52 74.1l43.06-87.5h40.28l-.128 132.31h-56.24c-12.95 0-34.804-15.56-26.964-44.818m388.2-74.42l-.091 102.39c-1.709 9.686-8.391 11.615-13.855 16.715h-160.15c-5.534-5.352-12.691-6.715-14.439-16.617l-.919.012.215-102.57c0-3.788 6.245-8.178 13.11-13h163.56c6.764 4.747 12.567 8.876 12.567 13.07"/></g></svg>

<?xml version="1.0" encoding="utf-8"?>
<!-- Generator: Adobe Illustrator 15.0.0, SVG Export Plug-In . SVG Version: 6.00 Build 0)  -->
<!DOCTYPE svg PUBLIC "-//W3C//DTD SVG 1.1//EN" "http://www.w3.org/Graphics/SVG/1.1/DTD/svg11.dtd">
<svg version="1.1" xmlns="http://www.w3.org/2000/svg" xmlns:xlink="http://www.w3.org/1999/xlink" x="0px" y="0px" width="580px"
	 height="580px" viewBox="0 0 580 580" enable-background="new 0 0 580 580" xml:space="preserve">
<g id="Layer_2_1_">
	<g id="Layer_2">
		<g id="g1327">
			<path id="path1329" fill="#111111" stroke="#EEEEEE" stroke-width="3.408" d="M66.275,1.768
				c-41.335,0-64.571,21.371-64.571,65.036v450.123c0,40.844,20.895,62.229,62.192,62.229h452.024
				c41.307,0,62.229-20.315,62.229-62.229V66.804c0-42.602-20.923-65.036-63.521-65.036C514.625,1.768,66.133,1.625,66.275,1.768z"
				/>
		</g>
	</g>
</g>
<g id="Layer_1">
	<g>
		<path fill="#FFFFFF" d="M260.23,496.148l-97.216-0.607C163.448,563.111,260.23,563.111,260.23,496.148z"/>
		<path fill="#FFFFFF" d="M460.736,496.129l-97.216-0.607C363.954,563.09,460.736,563.092,460.736,496.129z"/>
		<path fill="#FFFFFF" d="M346.356,495.996H277.85c-0.485,15.811-2.964,23.148-7.14,30.381h81.418
			C347.984,519.199,346.094,511.59,346.356,495.996z"/>
		<path fill="#FFFFFF" d="M440.273,208.826l-9.795-10.272h-78.137l114.125-76.872L335.704,33.705l-133.674,88.05l116.809,76.799
			h-81.105l-8.56,10.272h-94.806l0.259,29.15h-0.309L68.366,369.244v79.615c0,14.379,16.979,29.326,29.924,29.287h413.344v-105.76
			v-0.594V239.616v-1.412v-29.378H440.273z M335.643,45.962l112.554,75.726l-112.473,75.759l-115.135-75.699L335.643,45.962z
			 M287.923,253.009l-0.088,188.167c-1.735,9.832-8.6,11.652-14.107,16.93h-46.809c-5.538-5.414-12.536-7.162-14.291-17.102
			l-0.089-188.167c0-4.237,5.925-8.411,12.777-13.22H274.9C281.856,244.499,287.923,248.721,287.923,253.009z M109.404,327.111
			l43.055-87.495h40.278l-0.128,132.313h-56.241C123.418,371.929,101.564,356.369,109.404,327.111z M497.605,252.688l-0.091,102.39
			c-1.709,9.686-8.391,11.615-13.855,16.715H323.511c-5.534-5.352-12.691-6.715-14.439-16.617l-0.919,0.012l0.215-102.569
			c0-3.788,6.245-8.178,13.106-13.002h163.564C491.802,244.364,497.605,248.493,497.605,252.688z"/>
	</g>
</g>
</svg>
